src/assets/icons/icons-origin/Paypal.svg

<svg width="24" height="24" viewBox="0 0 24 24" xmlns="http://www.w3.org/2000/svg">
  <svg viewBox="0 0 24 16">
    <path d="M1.47368 0.5H22.5263C23.0764 0.5 23.5 0.931179 23.5 1.4359V14.5641C23.5 15.0688 23.0764 15.5 22.5263 15.5H1.47368C0.92361 15.5 0.5 15.0688 0.5 14.5641V1.4359C0.5 0.931179 0.923611 0.5 1.47368 0.5Z" fill="white" stroke="#F3F3F3"/>
    <path fill-rule="evenodd" clip-rule="evenodd" d="M10.8599 8.10598L10.9643 7.44039L10.7316 7.43497H9.62018L10.3926 2.52344C10.395 2.50857 10.4027 2.49476 10.4141 2.48494C10.4255 2.47511 10.4401 2.46973 10.4553 2.46973H12.3294C12.9515 2.46973 13.3809 2.59954 13.605 2.8558C13.7102 2.97602 13.7771 3.10168 13.8095 3.23991C13.8434 3.38499 13.844 3.5583 13.8109 3.76972L13.8085 3.78509V3.92059L13.9136 3.9803C14.002 4.02739 14.0724 4.08126 14.1263 4.14292C14.2162 4.24575 14.2744 4.37642 14.2989 4.53126C14.3243 4.69053 14.3159 4.88013 14.2744 5.09473C14.2264 5.34155 14.1489 5.55656 14.0442 5.73246C13.9479 5.89455 13.8253 6.02903 13.6796 6.13318C13.5405 6.2322 13.3753 6.30735 13.1885 6.35543C13.0074 6.40268 12.8011 6.42652 12.5747 6.42652H12.4288C12.3246 6.42652 12.2233 6.46422 12.1438 6.53171C12.064 6.60064 12.0113 6.69482 11.9951 6.79777L11.9841 6.85773L11.7995 8.03088L11.7911 8.07391C11.7889 8.08757 11.7851 8.09435 11.7795 8.09895C11.7746 8.10317 11.7674 8.10598 11.7604 8.10598H10.8599Z" fill="#28356A"/>
    <path fill-rule="evenodd" clip-rule="evenodd" d="M14.013 3.80078C14.0075 3.83664 14.0011 3.87327 13.9939 3.91097C13.7467 5.18351 12.9012 5.62312 11.8213 5.62312H11.2715C11.1394 5.62312 11.0281 5.71925 11.0076 5.84988L10.6463 8.14788C10.633 8.2337 10.6989 8.31096 10.7851 8.31096H11.7604C11.8758 8.31096 11.9739 8.22683 11.9921 8.11263L12.0017 8.06297L12.1853 6.89442L12.1971 6.83032C12.2151 6.7157 12.3134 6.63154 12.4289 6.63154H12.5747C13.5195 6.63154 14.2592 6.24687 14.4754 5.1336C14.5656 4.66854 14.5189 4.28024 14.28 4.00714C14.2077 3.92483 14.118 3.85645 14.013 3.80078Z" fill="#298FC2"/>
    <path fill-rule="evenodd" clip-rule="evenodd" d="M13.7545 3.69742C13.7168 3.68636 13.6778 3.67637 13.6378 3.66733C13.5977 3.65852 13.5565 3.65072 13.5142 3.64388C13.3659 3.61986 13.2035 3.60846 13.0295 3.60846H11.5606C11.5244 3.60846 11.4901 3.61666 11.4593 3.63147C11.3915 3.66414 11.3412 3.72846 11.329 3.8072L11.0165 5.79205L11.0076 5.8499C11.0281 5.71927 11.1394 5.6231 11.2715 5.6231H11.8213C12.9012 5.6231 13.7468 5.18328 13.9939 3.91095C14.0013 3.8733 14.0075 3.83666 14.013 3.80079C13.9505 3.76751 13.8828 3.73906 13.8099 3.71482C13.7919 3.70881 13.7733 3.70303 13.7545 3.69742Z" fill="#22284F"/>
    <path fill-rule="evenodd" clip-rule="evenodd" d="M11.329 3.8072C11.3412 3.72845 11.3915 3.66414 11.4593 3.6317C11.4903 3.61683 11.5244 3.60863 11.5606 3.60863H13.0295C13.2035 3.60863 13.3659 3.62008 13.5142 3.6441C13.5565 3.65089 13.5977 3.65875 13.6378 3.66756C13.6778 3.67654 13.7168 3.68659 13.7545 3.69759C13.7733 3.7032 13.7919 3.70904 13.8101 3.71482C13.883 3.73906 13.9508 3.76774 14.0133 3.8008C14.0868 3.33054 14.0127 3.01036 13.7591 2.72042C13.4796 2.40119 12.9752 2.26459 12.3296 2.26459H10.4555C10.3236 2.26459 10.2112 2.36073 10.1908 2.49161L9.4102 7.45364C9.39481 7.55179 9.47033 7.64038 9.56906 7.64038H10.726L11.329 3.8072Z" fill="#28356A"/>
    <path fill-rule="evenodd" clip-rule="evenodd" d="M5.33812 9.45691H3.97173C3.87821 9.45691 3.79869 9.52502 3.78408 9.61763L3.23144 13.1314C3.22047 13.2008 3.27403 13.2632 3.34415 13.2632H3.99646C4.08996 13.2632 4.16949 13.1952 4.18409 13.1024L4.33314 12.1546C4.3475 12.0619 4.4272 11.9938 4.52055 11.9938H4.95309C5.85317 11.9938 6.3726 11.5569 6.50833 10.6914C6.56945 10.3127 6.51089 10.0152 6.33404 9.80677C6.13985 9.57794 5.7954 9.45691 5.33812 9.45691ZM5.49574 10.7403C5.421 11.232 5.0464 11.232 4.68421 11.232H4.47797L4.62263 10.3137C4.63124 10.2582 4.67916 10.2173 4.73514 10.2173H4.82965C5.0764 10.2173 5.30916 10.2173 5.4294 10.3584C5.50116 10.4425 5.52309 10.5675 5.49574 10.7403Z" fill="#28356A"/>
    <path fill-rule="evenodd" clip-rule="evenodd" d="M9.45745 10.6978H8.80312C8.74738 10.6978 8.69917 10.7387 8.69061 10.7942L8.66164 10.9777L8.61592 10.9112C8.47428 10.705 8.15835 10.6361 7.84312 10.6361C7.12002 10.6361 6.50247 11.1853 6.38218 11.9557C6.31966 12.34 6.40854 12.7075 6.62595 12.9638C6.82535 13.1994 7.11066 13.2976 7.4501 13.2976C8.03272 13.2976 8.35573 12.9219 8.35573 12.9219L8.32659 13.1043C8.31563 13.1739 8.36917 13.2365 8.4389 13.2365H9.02826C9.12199 13.2365 9.20111 13.1684 9.21592 13.0756L9.56955 10.8297C9.58072 10.7605 9.52734 10.6978 9.45745 10.6978ZM8.54533 11.975C8.48222 12.3498 8.18557 12.6015 7.80712 12.6015C7.61715 12.6015 7.46533 12.5404 7.36775 12.4246C7.27105 12.3096 7.23435 12.1459 7.26505 11.9636C7.32406 11.5919 7.62571 11.332 7.99837 11.332C8.18417 11.332 8.3352 11.394 8.43472 11.5107C8.53436 11.6287 8.57396 11.7934 8.54533 11.975Z" fill="#28356A"/>
    <path fill-rule="evenodd" clip-rule="evenodd" d="M12.8919 10.754H12.2343C12.1716 10.754 12.1127 10.7853 12.0771 10.8376L11.1702 12.1772L10.7858 10.8899C10.7616 10.8093 10.6875 10.754 10.6036 10.754H9.9575C9.87892 10.754 9.82442 10.831 9.84937 10.9051L10.5736 13.0366L9.89274 14.0006C9.83919 14.0765 9.89311 14.1809 9.98564 14.1809H10.6424C10.7047 14.1809 10.763 14.1504 10.7984 14.0992L12.9853 10.9334C13.0377 10.8576 12.9839 10.754 12.8919 10.754Z" fill="#28356A"/>
    <path fill-rule="evenodd" clip-rule="evenodd" d="M15.0839 9.45691H13.7174C13.624 9.45691 13.5445 9.52502 13.5299 9.61763L12.9773 13.1314C12.9663 13.2008 13.0199 13.2632 13.0896 13.2632H13.7909C13.856 13.2632 13.9117 13.2156 13.9219 13.1507L14.0788 12.1546C14.0931 12.0619 14.1729 11.9938 14.2662 11.9938H14.6985C15.5988 11.9938 16.1181 11.5569 16.254 10.6914C16.3153 10.3127 16.2564 10.0152 16.0795 9.80677C15.8855 9.57794 15.5412 9.45691 15.0839 9.45691ZM15.2416 10.7403C15.167 11.232 14.7924 11.232 14.43 11.232H14.224L14.3689 10.3137C14.3774 10.2582 14.425 10.2173 14.4811 10.2173H14.5756C14.8222 10.2173 15.0552 10.2173 15.1754 10.3584C15.2472 10.4425 15.2689 10.5675 15.2416 10.7403Z" fill="#298FC2"/>
    <path fill-rule="evenodd" clip-rule="evenodd" d="M19.2024 10.6978H18.5484C18.4923 10.6978 18.4446 10.7387 18.4362 10.7942L18.4072 10.9777L18.3612 10.9112C18.2196 10.705 17.9039 10.6361 17.5886 10.6361C16.8656 10.6361 16.2482 11.1853 16.128 11.9557C16.0656 12.34 16.1541 12.7075 16.3715 12.9638C16.5713 13.1994 16.8562 13.2976 17.1957 13.2976C17.7782 13.2976 18.1013 12.9219 18.1013 12.9219L18.0722 13.1043C18.0612 13.1739 18.1147 13.2365 18.1848 13.2365H18.774C18.8673 13.2365 18.9468 13.1684 18.9614 13.0756L19.3153 10.8297C19.3261 10.7605 19.2725 10.6978 19.2024 10.6978ZM18.2904 11.975C18.2276 12.3498 17.9305 12.6015 17.5521 12.6015C17.3625 12.6015 17.2103 12.5404 17.1127 12.4246C17.0161 12.3096 16.9797 12.1459 17.01 11.9636C17.0694 11.5919 17.3707 11.332 17.7433 11.332C17.9291 11.332 18.0801 11.394 18.1797 11.5107C18.2797 11.6287 18.3193 11.7934 18.2904 11.975Z" fill="#298FC2"/>
    <path fill-rule="evenodd" clip-rule="evenodd" d="M19.9193 9.55349L19.3585 13.1316C19.3475 13.2009 19.401 13.2634 19.4707 13.2634H20.0346C20.1283 13.2634 20.2078 13.1953 20.2222 13.1026L20.7752 9.58895C20.7862 9.5196 20.7327 9.45691 20.6629 9.45691H20.0316C19.9759 9.45707 19.9279 9.498 19.9193 9.55349Z" fill="#298FC2"/>
  </svg> 
</svg>

<svg width="24" height="24" viewBox="0 0 24 24" xmlns="http://www.w3.org/2000/svg">
  <svg viewBox="0 0 24 16">
    <path d="M1.474.5h21.052c.55 0 .974.431.974.936v13.128c0 .505-.424.936-.974.936H1.474c-.55 0-.974-.431-.974-.936V1.436C.5.93.924.5 1.474.5Z" fill="#fff" stroke="#F3F3F3"/>
    <path fill-rule="evenodd" clip-rule="evenodd" d="m10.86 8.106.104-.666-.232-.005H9.62l.773-4.912a.063.063 0 0 1 .063-.054h1.873c.622 0 1.052.13 1.276.387a.88.88 0 0 1 .204.384c.034.145.035.318.002.53l-.002.015v.136l.105.06a.739.739 0 0 1 .212.162c.09.103.148.233.173.388.025.16.017.35-.025.564a1.989 1.989 0 0 1-.23.637 1.31 1.31 0 0 1-.364.401c-.14.1-.305.174-.492.222a2.445 2.445 0 0 1-.613.072h-.146a.442.442 0 0 0-.434.37l-.01.06-.185 1.174-.009.043c-.002.014-.006.02-.011.025a.03.03 0 0 1-.02.007h-.9Z" fill="#28356A"/>
    <path fill-rule="evenodd" clip-rule="evenodd" d="M14.013 3.8a3.063 3.063 0 0 1-.02.111c-.246 1.273-1.092 1.712-2.172 1.712h-.55a.267.267 0 0 0-.263.227l-.362 2.298a.141.141 0 0 0 .14.163h.974a.235.235 0 0 0 .232-.198l.01-.05.183-1.169.012-.064a.235.235 0 0 1 .232-.198h.146c.945 0 1.684-.385 1.9-1.498.09-.465.044-.854-.195-1.127a.931.931 0 0 0-.267-.206Z" fill="#298FC2"/>
    <path fill-rule="evenodd" clip-rule="evenodd" d="M13.755 3.697a1.914 1.914 0 0 0-.24-.053 3.049 3.049 0 0 0-.486-.036h-1.468a.233.233 0 0 0-.232.2l-.313 1.984-.008.058a.267.267 0 0 1 .264-.227h.55c1.08 0 1.925-.44 2.172-1.712.007-.038.014-.074.019-.11a1.312 1.312 0 0 0-.258-.104Z" fill="#22284F"/>
    <path fill-rule="evenodd" clip-rule="evenodd" d="M11.329 3.807a.234.234 0 0 1 .232-.198h1.469a3.049 3.049 0 0 1 .608.059 1.914 1.914 0 0 1 .172.047c.073.024.14.053.203.086.074-.47 0-.79-.254-1.08-.28-.32-.784-.456-1.43-.456h-1.873a.268.268 0 0 0-.265.227l-.78 4.962a.161.161 0 0 0 .158.186h1.157l.603-3.833ZM5.338 9.457H3.972a.19.19 0 0 0-.188.16l-.553 3.514a.114.114 0 0 0 .113.132h.652a.19.19 0 0 0 .188-.16l.15-.948a.19.19 0 0 1 .187-.161h.432c.9 0 1.42-.437 1.555-1.303.061-.378.003-.676-.174-.884-.194-.23-.539-.35-.996-.35Zm.158 1.283c-.075.492-.45.492-.812.492h-.206l.145-.918a.114.114 0 0 1 .112-.097h.095c.246 0 .48 0 .6.141.071.085.093.21.066.382ZM9.457 10.698h-.654a.114.114 0 0 0-.112.096l-.03.184-.045-.067c-.142-.206-.458-.275-.773-.275-.723 0-1.34.55-1.46 1.32-.063.384.026.752.243 1.008.2.235.485.334.824.334.583 0 .906-.376.906-.376l-.03.182a.114.114 0 0 0 .113.133h.59a.19.19 0 0 0 .187-.161l.354-2.246a.114.114 0 0 0-.113-.132Zm-.912 1.277a.73.73 0 0 1-.738.627c-.19 0-.342-.062-.44-.177a.56.56 0 0 1-.102-.461.733.733 0 0 1 .733-.632c.186 0 .337.062.437.179.1.118.139.282.11.464ZM12.892 10.754h-.658a.19.19 0 0 0-.157.084l-.907 1.34-.384-1.288a.19.19 0 0 0-.182-.136h-.646a.114.114 0 0 0-.109.151l.725 2.132-.681.964c-.054.075 0 .18.093.18h.656a.19.19 0 0 0 .156-.082l2.187-3.166a.114.114 0 0 0-.093-.179Z" fill="#28356A"/>
    <path fill-rule="evenodd" clip-rule="evenodd" d="M15.084 9.457h-1.367a.19.19 0 0 0-.187.16l-.553 3.514a.114.114 0 0 0 .113.132h.7c.066 0 .122-.047.132-.112l.157-.996a.19.19 0 0 1 .187-.161h.432c.9 0 1.42-.437 1.556-1.303.061-.378.002-.676-.175-.884-.194-.23-.538-.35-.995-.35Zm.158 1.283c-.075.492-.45.492-.812.492h-.206l.145-.918a.113.113 0 0 1 .112-.097h.095c.246 0 .48 0 .6.141.071.085.093.21.066.382ZM19.202 10.698h-.654a.113.113 0 0 0-.112.096l-.029.184-.046-.067c-.141-.206-.457-.275-.772-.275-.723 0-1.34.55-1.461 1.32-.062.384.026.752.244 1.008.2.235.484.334.824.334.582 0 .905-.376.905-.376l-.029.182a.114.114 0 0 0 .113.133h.589a.19.19 0 0 0 .187-.161l.354-2.246a.114.114 0 0 0-.113-.132Zm-.912 1.277a.73.73 0 0 1-.738.627c-.19 0-.342-.062-.44-.177a.561.561 0 0 1-.102-.461.733.733 0 0 1 .733-.632c.186 0 .337.062.437.179.1.118.14.282.11.464ZM19.92 9.553l-.562 3.579a.114.114 0 0 0 .113.131h.564a.19.19 0 0 0 .187-.16l.553-3.514a.114.114 0 0 0-.112-.132h-.631a.114.114 0 0 0-.113.096Z" fill="#298FC2"/>
  </svg>
</svg>
